X:917
T:Polska från Södra Finnö
O:Vikbolandet, Östergötland
S:efter Finnmark Hellström
B:Låtar efter Pelle Fors
R:Polska
Z:Björn Ek 2009-01-02
M:3/4
L:1/8
K:D
%
|:d>d B2 e2|d/c/B/c/ dA FA|d>d BB ee|d/c/B/c/ d4:|
%
|:d>d e2 a2|af ge fd |d>d e2 a2|
af ge fd   |d>d B2 e2|d/c/B/c/ d4:|
%
(:musicend:)

(:music:)
